app/dist/common/images/avient.svg

<svg height="18" viewBox="0 0 18 18" width="18" xmlns="http://www.w3.org/2000/svg"><path d="m0 0h18v18h-18z" fill="#f0f3fa"/><path d="m7.85 8.62c.2.21.2.56 0 .78l-2.45 2.6c-.1-.14-.32-.46-.4-.6 0-.25 1.28-1.7 1.93-2.4-.63-.71-1.91-2.15-1.93-2.4l.4-.6z" fill="#00b73f"/><path d="m8.62 7.85c.21.2.56.2.78 0l2.6-2.45c-.14-.1-.46-.32-.6-.4-.25 0-1.7 1.28-2.4 1.93-.71-.63-2.15-1.91-2.4-1.93l-.6.4z" fill="#0081e5"/><path d="m4.29 7c.11.24.52.9 1.25 1.57l.46.43-.46.43a5.95 5.95 0 0 0 -1.25 1.57 6.09 6.09 0 0 1 -.29-.91c-.02-.17.45-.8.7-1.09-.25-.3-.72-.92-.7-1.09s.2-.68.29-.91z" fill="#00b73f"/><g fill="#0081e5"><path d="m7 4.29c.24.11.9.52 1.57 1.25l.43.46.43-.46a5.95 5.95 0 0 1 1.57-1.25 6.09 6.09 0 0 0 -.91-.29c-.17-.02-.8.45-1.09.7-.3-.25-.92-.72-1.09-.7s-.68.2-.91.29zm2.38 5.86a.58.58 0 0 0 -.78 0l-2.6 2.45c.14.1.46.32.6.4.25 0 1.7-1.28 2.4-1.93.71.65 2.15 1.92 2.4 1.94l.6-.4-2.62-2.45zm.77-.77a.58.58 0 0 1 0-.78l2.45-2.6c.1.14.32.46.4.6 0 .25-1.28 1.7-1.93 2.4.65.71 1.92 2.15 1.94 2.4l-.4.6-2.45-2.62z"/><path d="m11 13.71c-.24-.11-.9-.52-1.57-1.25l-.43-.46-.43.46a5.95 5.95 0 0 1 -1.57 1.25c.23.1.74.27.91.29s.8-.45 1.09-.7c.3.25.92.72 1.09.7s.68-.2.91-.29zm2.71-2.71c-.11-.24-.52-.9-1.25-1.57l-.46-.43.46-.43a5.95 5.95 0 0 0 1.25-1.57c.1.23.27.74.29.91s-.45.8-.7 1.09c.25.3.72.92.7 1.09s-.2.68-.29.91z"/></g></svg>

<!-- by TradingView --><svg width="18" height="18" viewBox="0 0 18 18" xmlns="http://www.w3.org/2000/svg"><path fill="#F0F3FA" d="M0 0h18v18H0z"/><path d="M7.85 8.62c.2.21.2.56 0 .78L5.4 12c-.1-.14-.32-.46-.4-.6 0-.25 1.28-1.7 1.93-2.4C6.3 8.29 5.02 6.85 5 6.6l.4-.6 2.45 2.62Z" fill="#00B73F"/><path d="M8.62 7.85c.21.2.56.2.78 0L12 5.4c-.14-.1-.46-.32-.6-.4-.25 0-1.7 1.28-2.4 1.93C8.29 6.3 6.85 5.02 6.6 5l-.6.4 2.62 2.45Z" fill="#0081E5"/><path d="M4.29 7c.11.24.52.9 1.25 1.57L6 9l-.46.43A5.95 5.95 0 0 0 4.29 11a6.09 6.09 0 0 1-.29-.91c-.02-.17.45-.8.7-1.09-.25-.3-.72-.92-.7-1.09.02-.17.2-.68.29-.91Z" fill="#00B73F"/><path d="M7 4.29c.24.11.9.52 1.57 1.25L9 6l.43-.46A5.95 5.95 0 0 1 11 4.29a6.09 6.09 0 0 0-.91-.29c-.17-.02-.8.45-1.09.7-.3-.25-.92-.72-1.09-.7-.17.02-.68.2-.91.29ZM9.38 10.15a.58.58 0 0 0-.78 0L6 12.6c.14.1.46.32.6.4.25 0 1.7-1.28 2.4-1.93.71.65 2.15 1.92 2.4 1.94l.6-.4-2.62-2.45ZM10.15 9.38a.58.58 0 0 1 0-.78L12.6 6c.1.14.32.46.4.6 0 .25-1.28 1.7-1.93 2.4.65.71 1.92 2.15 1.94 2.4l-.4.6-2.45-2.62Z" fill="#0081E5"/><path d="M11 13.71c-.24-.11-.9-.52-1.57-1.25L9 12l-.43.46A5.95 5.95 0 0 1 7 13.71c.23.1.74.27.91.29.17.02.8-.45 1.09-.7.3.25.92.72 1.09.7.17-.02.68-.2.91-.29ZM13.71 11c-.11-.24-.52-.9-1.25-1.57L12 9l.46-.43A5.95 5.95 0 0 0 13.71 7c.1.23.27.74.29.91.02.17-.45.8-.7 1.09.25.3.72.92.7 1.09-.02.17-.2.68-.29.91Z" fill="#0081E5"/></svg>
